X: 021311
T: Boys of Thomastown
T: Buachaill\'i Bhaile Mhic Annd\'ain
S: "Ceol Rince na hEireann" 1/14
Z: B.Black
L: 1/8
M: 6/8
R: jig
K: G
A/B/|cBA GED|EDE GED|B2B BAG|EAA ABc|
BAB GED|EDE GED|B2G AGE|GAG G2 :|
A|BAG Bcd|(3efg e dBG|ABA BAG|EAA ABc|
BAG Bcd|(3efg e dBG|A2A AGE|GAG G2 :|
